!!!OTL: ICH HOERT EIN BAECHLEIN RAUSCHEN
!!!ARE: Europa, Mitteleuropa, Deutschland
!!!SCT: B0519
!!!YEM: Copyright 1995, estate of Helmut Schaffrath.
**kern
*ICvox
*Ivox
*M2/4
*k[f#]
*G:
{16b
16cc
=1
8dd
8dd
8dd
8dd
=2
8.dd
16b
8g}
{16b
16g
=3
8d
8d
16d
16f#
16a
16f#
=4
4g
8r}
{16b
16cc
=5
8dd
8dd
8dd
8dd
=6
8.dd
16b
8g}
{16b
16g
=7
8d
8d
16d
16f#
16a
16f#
=8
4g
8r}
{8b
=9
8b
8b
8r
16b
16a
=10
8g#
8g#
8r}
{8g
=11
8a
8a
8ee
16ee
16dd
=12
4cc
8r}
{8a
=13
16b
16cc
16b
16cc
8dd
8dd
=14
8.dd
16b
8g}
{16b
16g
=15
8d
8d
16d
16f#
16a
16f#
=16
4g
8r}
==
!!!AGN: Wander - Lied
!!!ONB: ESAC (Essen Associative Code) Database: BOEHME
!!!AMT: simple duple
!!!AIN: vox
!!!EED: Helmut Schaffrath
!!!EEV: 1.0
*-
